bootstrap/grid-fill.svg

<svg viewBox="0 0 16 16" xmlns="http://www.w3.org/2000/svg"><path d="M1 2.5v0C1 1.67 1.67 1 2.5 1h3v0C6.32 1 7 1.67 7 2.5v3 0C7 6.32 6.32 7 5.5 7h-3v0C1.67 7 1 6.32 1 5.5v-3Zm8 0v0c0-.83.67-1.5 1.5-1.5h3v0c.82 0 1.5.67 1.5 1.5v3 0c0 .82-.68 1.5-1.5 1.5h-3v0C9.67 7 9 6.32 9 5.5v-3Zm-8 8v0C1 9.67 1.67 9 2.5 9h3v0c.82 0 1.5.67 1.5 1.5v3 0c0 .82-.68 1.5-1.5 1.5h-3v0c-.83 0-1.5-.68-1.5-1.5v-3Zm8 0v0c0-.83.67-1.5 1.5-1.5h3v0c.82 0 1.5.67 1.5 1.5v3 0c0 .82-.68 1.5-1.5 1.5h-3v0c-.83 0-1.5-.68-1.5-1.5v-3Z"/></svg>

<svg xmlns="http://www.w3.org/2000/svg" width="16" height="16" fill="currentColor" class="bi bi-grid-fill" viewBox="0 0 16 16">
  <path d="M1 2.5A1.5 1.5 0 0 1 2.5 1h3A1.5 1.5 0 0 1 7 2.5v3A1.5 1.5 0 0 1 5.5 7h-3A1.5 1.5 0 0 1 1 5.5zm8 0A1.5 1.5 0 0 1 10.5 1h3A1.5 1.5 0 0 1 15 2.5v3A1.5 1.5 0 0 1 13.5 7h-3A1.5 1.5 0 0 1 9 5.5zm-8 8A1.5 1.5 0 0 1 2.5 9h3A1.5 1.5 0 0 1 7 10.5v3A1.5 1.5 0 0 1 5.5 15h-3A1.5 1.5 0 0 1 1 13.5zm8 0A1.5 1.5 0 0 1 10.5 9h3a1.5 1.5 0 0 1 1.5 1.5v3a1.5 1.5 0 0 1-1.5 1.5h-3A1.5 1.5 0 0 1 9 13.5z"/>
</svg>
